src/assets/icons/payview/safe-shipping.svg

<svg width="18" height="20" viewBox="0 0 18 20" fill="none" xmlns="http://www.w3.org/2000/svg">
<path fill-rule="evenodd" clip-rule="evenodd" d="M7.66503 0.852356C7.95677 0.542551 8.35446 0.375 8.7914 0.375C9.20864 0.375 9.60457 0.546619 9.89299 0.852843C10.6628 1.6628 11.8324 2.17825 13.2476 2.43922C13.7761 2.53668 14.3082 2.59249 14.8222 2.61469C15.1657 2.62953 15.4548 2.62771 15.6887 2.61729C16.5323 2.62146 17.214 3.31508 17.214 4.16186V9.66605C17.214 12.1641 15.817 14.7174 13.5552 16.3675L9.64355 19.0023C9.39085 19.1712 9.09736 19.2606 8.79472 19.2606L8.77116 19.2603L8.77036 19.2603C8.76774 19.2602 8.76512 19.2602 8.73616 19.2606C8.43171 19.2606 8.13602 19.17 7.88216 18.9987L4.0107 16.3728C1.76713 14.7348 0.375 12.1782 0.375 9.66605V4.16186C0.375 3.31498 1.05637 2.62145 1.93072 2.61787C2.14337 2.62717 2.42235 2.62865 2.76238 2.61376C3.27334 2.59139 3.80132 2.53561 4.32603 2.43827C5.73254 2.17734 6.89638 1.66187 7.66503 0.852356ZM8.58211 17.964C8.62853 17.9953 8.68092 18.0114 8.72261 18.0115C8.75019 18.0111 8.76112 18.011 8.77204 18.011C8.77921 18.011 8.78637 18.0112 8.79823 18.0113C8.85196 18.0107 8.90274 17.9949 8.94753 17.9649L12.8381 15.3449C14.769 13.9357 15.9648 11.7502 15.9648 9.66605V4.16186C15.9648 3.99917 15.8352 3.86727 15.7157 3.86579C15.4785 3.87726 15.1516 3.87932 14.7683 3.86277C14.1994 3.8382 13.6104 3.77641 13.0211 3.66775C11.3688 3.36308 9.96724 2.74514 8.98381 1.70959C8.931 1.6534 8.86383 1.62424 8.7914 1.62424C8.69483 1.62424 8.62733 1.65268 8.57272 1.71066C7.5917 2.74386 6.19639 3.36185 4.5539 3.66655C3.96819 3.77521 3.38311 3.83702 2.81703 3.86181C2.43814 3.8784 2.12328 3.87673 1.90653 3.86651C1.75364 3.86727 1.62424 3.99898 1.62424 4.16186V9.66605C1.62424 11.7654 2.81584 13.9537 4.72959 15.3513L8.58211 17.964ZM12.5661 7.12466C12.3299 6.89615 11.9497 6.89741 11.7127 7.126L7.70474 11.039L6.54225 9.89501C6.30732 9.66424 5.92569 9.66152 5.68902 9.89044C5.45098 10.1189 5.44873 10.4921 5.68431 10.7241L7.27451 12.2886C7.38757 12.3997 7.54137 12.4624 7.70214 12.463C7.86293 12.463 8.0167 12.401 8.1309 12.2906L12.5678 7.95888C12.804 7.72864 12.8031 7.35504 12.5661 7.12466Z" fill="#253238"/>
</svg>

<svg width="18" height="20" fill="none" xmlns="http://www.w3.org/2000/svg"><path fill-rule="evenodd" clip-rule="evenodd" d="M7.665.852c.292-.31.69-.477 1.126-.477.418 0 .814.172 1.102.478.77.81 1.94 1.325 3.355 1.586a11.444 11.444 0 0 0 2.44.178 1.54 1.54 0 0 1 1.526 1.545v5.504c0 2.498-1.397 5.051-3.659 6.701l-3.911 2.635a1.523 1.523 0 0 1-.85.259h-.058c-.304 0-.6-.091-.854-.262l-3.871-2.626C1.767 14.735.375 12.178.375 9.666V4.162c0-.847.681-1.54 1.556-1.544a11.322 11.322 0 0 0 2.395-.18c1.407-.26 2.57-.776 3.339-1.586Zm.917 17.112a.265.265 0 0 0 .14.048l.05-.001h.026a.27.27 0 0 0 .15-.046l3.89-2.62c1.931-1.41 3.127-3.595 3.127-5.679V4.162c0-.163-.13-.295-.25-.296a12.684 12.684 0 0 1-2.695-.198c-1.651-.305-3.053-.923-4.036-1.958a.26.26 0 0 0-.193-.086.278.278 0 0 0-.218.087c-.981 1.033-2.377 1.65-4.02 1.956a12.561 12.561 0 0 1-2.646.2.292.292 0 0 0-.283.295v5.504c0 2.1 1.192 4.288 3.106 5.685l3.852 2.613Zm3.984-10.84a.617.617 0 0 0-.853.002l-4.008 3.913-1.163-1.144a.614.614 0 0 0-.853-.005.578.578 0 0 0-.005.834l1.59 1.565a.613.613 0 0 0 .857.002l4.437-4.332a.579.579 0 0 0-.002-.834Z" fill="#253238"/></svg>
